icons/ms.svg

<?xml version="1.0" ?>
<svg xmlns="http://www.w3.org/2000/svg" xmlns:ev="http://www.w3.org/2001/xml-events" xmlns:xlink="http://www.w3.org/1999/xlink" baseProfile="full" height="600px" version="1.1" viewBox="1283.0857457393986 -1019.0315051648325 7674.953174996863 12280.66788482772" width="375px">
	<defs/>
	<path d="M 4572.0,10228.0 C 4564.0,10220.0 4564.0,10211.0 4571.0,10198.0 C 4586.0,10171.0 4576.0,10164.0 4519.0,10157.0 C 4412.0,10144.0 4370.0,10100.0 4337.0,9965.0 C 4330.0,9932.0 4312.0,9870.0 4299.0,9827.0 L 4276.0,9749.0 L 4303.0,9697.0 C 4334.0,9638.0 4338.0,9592.0 4314.0,9583.0 C 4305.0,9580.0 4285.0,9550.0 4269.0,9516.0 C 4234.0,9442.0 4230.0,9366.0 4258.0,9329.0 C 4282.0,9298.0 4292.0,9232.0 4284.0,9159.0 C 4278.0,9103.0 4276.0,9100.0 4229.0,9072.0 C 4179.0,9040.0 4140.0,8981.0 4140.0,8937.0 C 4140.0,8913.0 4194.0,8855.0 4239.0,8830.0 C 4280.0,8808.0 4262.0,8708.0 4200.0,8620.0 C 4190.0,8606.0 4175.0,8566.0 4166.0,8530.0 C 4154.0,8482.0 4142.0,8460.0 4122.0,8445.0 C 4107.0,8435.0 4073.0,8404.0 4047.0,8378.0 C 4002.0,8333.0 3970.0,8317.0 3970.0,8340.0 C 3970.0,8346.0 3959.0,8350.0 3945.0,8350.0 C 3921.0,8350.0 3920.0,8348.0 3920.0,8281.0 C 3920.0,8230.0 3915.0,8207.0 3902.0,8189.0 C 3892.0,8176.0 3868.0,8136.0 3850.0,8101.0 C 3831.0,8066.0 3806.0,8031.0 3793.0,8023.0 C 3765.0,8005.0 3675.0,7874.0 3651.0,7817.0 C 3641.0,7794.0 3627.0,7747.0 3620.0,7713.0 C 3613.0,7678.0 3603.0,7650.0 3599.0,7650.0 C 3594.0,7650.0 3590.0,7656.0 3590.0,7663.0 C 3590.0,7671.0 3586.0,7670.0 3580.0,7660.0 C 3575.0,7652.0 3570.0,7619.0 3570.0,7588.0 C 3570.0,7557.0 3565.0,7528.0 3560.0,7525.0 C 3554.0,7521.0 3541.0,7501.0 3530.0,7480.0 C 3515.0,7450.0 3503.0,7440.0 3473.0,7433.0 C 3438.0,7425.0 3435.0,7421.0 3432.0,7385.0 C 3430.0,7363.0 3423.0,7338.0 3415.0,7330.0 C 3357.0,7263.0 3320.0,7070.0 3320.0,6833.0 C 3320.0,6734.0 3319.0,6731.0 3287.0,6688.0 C 3269.0,6664.0 3248.0,6625.0 3241.0,6600.0 C 3234.0,6575.0 3217.0,6534.0 3204.0,6508.0 C 3185.0,6470.0 3180.0,6445.0 3180.0,6383.0 C 3180.0,6326.0 3175.0,6295.0 3161.0,6270.0 C 3151.0,6251.0 3138.0,6212.0 3132.0,6185.0 C 3115.0,6106.0 3086.0,6047.0 3046.0,6012.0 C 3026.0,5994.0 3005.0,5980.0 3000.0,5980.0 C 2994.0,5980.0 2990.0,5973.0 2990.0,5964.0 C 2990.0,5956.0 2974.0,5934.0 2955.0,5916.0 C 2933.0,5895.0 2920.0,5873.0 2920.0,5857.0 C 2920.0,5843.0 2915.0,5828.0 2909.0,5824.0 C 2903.0,5821.0 2892.0,5802.0 2884.0,5784.0 C 2875.0,5762.0 2856.0,5743.0 2831.0,5731.0 C 2799.0,5714.0 2791.0,5704.0 2786.0,5673.0 C 2768.0,5573.0 2751.0,5543.0 2692.0,5503.0 C 2643.0,5470.0 2629.0,5453.0 2590.0,5377.0 C 2536.0,5273.0 2499.0,5233.0 2421.0,5195.0 C 2355.0,5164.0 2356.0,5168.0 2343.0,4987.0 L 2337.0,4899.0 L 2381.0,4854.0 C 2405.0,4830.0 2430.0,4810.0 2438.0,4810.0 C 2449.0,4810.0 2451.0,4801.0 2446.0,4773.0 C 2437.0,4723.0 2437.0,4726.0 2450.0,4560.0 C 2467.0,4345.0 2459.0,4201.0 2426.0,4119.0 C 2412.0,4083.0 2400.0,4037.0 2400.0,4016.0 C 2400.0,3995.0 2387.0,3954.0 2370.0,3920.0 C 2347.0,3874.0 2340.0,3847.0 2340.0,3801.0 C 2340.0,3703.0 2289.0,3589.0 2210.0,3515.0 C 2193.0,3499.0 2124.0,3447.0 2058.0,3400.0 C 1970.0,3338.0 1934.0,3307.0 1929.0,3288.0 C 1922.0,3260.0 1932.0,3250.0 1970.0,3250.0 C 1980.0,3250.0 2001.0,3239.0 2017.0,3227.0 C 2032.0,3214.0 2097.0,3180.0 2160.0,3151.0 C 2223.0,3123.0 2298.0,3084.0 2325.0,3066.0 C 2353.0,3048.0 2391.0,3030.0 2410.0,3027.0 C 2447.0,3019.0 2512.0,2980.0 2683.0,2860.0 C 2784.0,2790.0 2798.0,2776.0 2891.0,2652.0 C 2964.0,2554.0 2993.0,2508.0 2996.0,2482.0 C 3009.0,2387.0 3023.0,2311.0 3037.0,2265.0 C 3055.0,2210.0 3108.0,2110.0 3119.0,2110.0 C 3124.0,2110.0 3139.0,2099.0 3154.0,2085.0 C 3175.0,2065.0 3180.0,2052.0 3180.0,2010.0 C 3180.0,1960.0 3192.0,1946.0 3216.0,1970.0 C 3224.0,1978.0 3256.0,1953.0 3321.0,1892.0 C 3404.0,1813.0 3423.0,1800.0 3476.0,1785.0 C 3536.0,1769.0 3537.0,1767.0 3568.0,1707.0 C 3585.0,1673.0 3602.0,1625.0 3605.0,1601.0 C 3614.0,1544.0 3657.0,1477.0 3708.0,1440.0 C 3758.0,1404.0 3828.0,1318.0 3900.0,1205.0 C 3956.0,1116.0 3979.0,1053.0 3980.0,988.0 C 3980.0,953.0 3984.0,949.0 4028.0,927.0 C 4054.0,913.0 4100.0,895.0 4130.0,885.0 C 4226.0,853.0 4284.0,823.0 4326.0,783.0 C 4349.0,761.0 4408.0,722.0 4459.0,696.0 C 4509.0,670.0 4565.0,633.0 4583.0,613.0 C 4601.0,594.0 4635.0,567.0 4660.0,555.0 C 4685.0,542.0 4716.0,516.0 4729.0,496.0 C 4747.0,468.0 4764.0,457.0 4808.0,445.0 C 4880.0,424.0 4928.0,383.0 4954.0,322.0 C 4983.0,254.0 5064.0,168.0 5130.0,135.0 C 5160.0,120.0 5210.0,93.0 5240.0,75.0 C 5332.0,20.0 5395.0,6.0 5555.0,9.0 C 5632.0,11.0 5699.0,16.0 5705.0,21.0 C 5710.0,26.0 5729.0,30.0 5748.0,30.0 C 5768.0,30.0 5822.0,49.0 5879.0,76.0 C 5932.0,102.0 5994.0,125.0 6018.0,128.0 C 6056.0,132.0 6069.0,127.0 6137.0,85.0 C 6227.0,30.0 6280.0,22.0 6346.0,57.0 C 6382.0,75.0 6388.0,76.0 6425.0,63.0 C 6479.0,43.0 6559.0,51.0 6598.0,78.0 C 6626.0,99.0 6633.0,100.0 6677.0,89.0 C 6703.0,82.0 6742.0,69.0 6764.0,59.0 C 6805.0,41.0 6841.0,45.0 6886.0,75.0 C 6913.0,93.0 6957.0,94.0 6996.0,79.0 C 7014.0,73.0 7062.0,71.0 7125.0,76.0 L 7226.0,82.0 L 7244.0,126.0 C 7295.0,251.0 7371.0,328.0 7484.0,371.0 L 7539.0,392.0 L 7628.0,559.0 C 7678.0,650.0 7728.0,745.0 7740.0,770.0 C 7768.0,826.0 7855.0,927.0 7883.0,936.0 C 7894.0,939.0 7933.0,962.0 7970.0,986.0 C 8034.0,1027.0 8038.0,1032.0 8042.0,1073.0 C 8046.0,1107.0 8063.0,1141.0 8110.0,1210.0 C 8145.0,1260.0 8184.0,1309.0 8197.0,1317.0 C 8210.0,1325.0 8241.0,1364.0 8267.0,1404.0 C 8314.0,1474.0 8315.0,1476.0 8314.0,1555.0 C 8313.0,1666.0 8291.0,1730.0 8222.0,1820.0 C 8133.0,1934.0 8081.0,2016.0 8064.0,2063.0 C 8056.0,2086.0 8037.0,2116.0 8021.0,2130.0 C 7984.0,2163.0 7967.0,2243.0 7963.0,2418.0 L 7959.0,2551.0 L 8011.0,2623.0 C 8039.0,2663.0 8081.0,2714.0 8103.0,2737.0 L 8143.0,2778.0 L 8136.0,2877.0 C 8132.0,2934.0 8133.0,2994.0 8139.0,3019.0 C 8147.0,3057.0 8146.0,3069.0 8127.0,3103.0 C 8115.0,3125.0 8099.0,3154.0 8091.0,3168.0 C 8083.0,3182.0 8075.0,3213.0 8072.0,3238.0 C 8068.0,3272.0 8072.0,3288.0 8089.0,3311.0 C 8109.0,3337.0 8111.0,3350.0 8106.0,3408.0 C 8103.0,3445.0 8097.0,3536.0 8091.0,3610.0 C 8086.0,3684.0 8079.0,3761.0 8075.0,3780.0 C 8062.0,3842.0 8004.0,3954.0 7972.0,3982.0 C 7924.0,4022.0 7902.0,4074.0 7880.0,4205.0 C 7857.0,4345.0 7854.0,4437.0 7873.0,4483.0 C 7881.0,4501.0 7912.0,4537.0 7943.0,4563.0 L 8000.0,4612.0 L 8000.0,4761.0 C 8000.0,4907.0 7999.0,4912.0 7970.0,4970.0 C 7954.0,5003.0 7940.0,5037.0 7940.0,5047.0 C 7940.0,5090.0 7886.0,5260.0 7870.0,5265.0 C 7861.0,5268.0 7838.0,5286.0 7820.0,5305.0 C 7785.0,5341.0 7785.0,5341.0 7779.0,5458.0 C 7774.0,5562.0 7770.0,5582.0 7742.0,5640.0 C 7724.0,5676.0 7710.0,5710.0 7710.0,5717.0 C 7710.0,5724.0 7700.0,5735.0 7688.0,5741.0 C 7675.0,5748.0 7620.0,5797.0 7565.0,5850.0 C 7466.0,5947.0 7464.0,5948.0 7365.0,5980.0 C 7258.0,6015.0 7151.0,6078.0 7127.0,6120.0 C 7119.0,6134.0 7109.0,6161.0 7105.0,6180.0 C 7093.0,6235.0 7072.0,6258.0 7006.0,6287.0 C 6950.0,6312.0 6903.0,6350.0 6745.0,6499.0 C 6723.0,6520.0 6692.0,6562.0 6677.0,6593.0 C 6651.0,6644.0 6650.0,6653.0 6661.0,6684.0 C 6670.0,6710.0 6671.0,6731.0 6662.0,6776.0 C 6655.0,6807.0 6650.0,6859.0 6650.0,6891.0 C 6650.0,6945.0 6648.0,6951.0 6615.0,6977.0 C 6582.0,7004.0 6581.0,7008.0 6590.0,7040.0 C 6596.0,7059.0 6600.0,7103.0 6600.0,7138.0 C 6600.0,7193.0 6595.0,7211.0 6560.0,7274.0 C 6511.0,7364.0 6491.0,7382.0 6412.0,7410.0 C 6347.0,7434.0 6320.0,7463.0 6320.0,7510.0 C 6320.0,7521.0 6295.0,7564.0 6265.0,7605.0 C 6198.0,7695.0 6195.0,7704.0 6185.0,7804.0 C 6181.0,7848.0 6172.0,7901.0 6164.0,7923.0 C 6156.0,7945.0 6150.0,7978.0 6150.0,7997.0 C 6150.0,8017.0 6135.0,8062.0 6115.0,8102.0 C 6086.0,8159.0 6081.0,8179.0 6086.0,8204.0 C 6097.0,8247.0 6095.0,8254.0 6048.0,8351.0 C 6009.0,8434.0 6005.0,8439.0 5945.0,8471.0 C 5887.0,8502.0 5881.0,8508.0 5866.0,8556.0 C 5857.0,8584.0 5850.0,8611.0 5850.0,8616.0 C 5850.0,8626.0 5958.0,8618.0 5996.0,8605.0 C 6014.0,8599.0 6020.0,8606.0 6038.0,8649.0 C 6050.0,8676.0 6060.0,8703.0 6060.0,8709.0 C 6060.0,8716.0 6036.0,8720.0 6000.0,8720.0 C 5967.0,8720.0 5940.0,8724.0 5940.0,8730.0 C 5940.0,8736.0 5990.0,8740.0 6070.0,8740.0 L 6200.0,8740.0 L 6200.0,8770.0 C 6200.0,8816.0 6158.0,8854.0 6117.0,8846.0 C 6000.0,8822.0 5986.0,8822.0 5951.0,8843.0 C 5910.0,8868.0 5881.0,8913.0 5888.0,8943.0 C 5891.0,8955.0 5926.0,8993.0 5966.0,9028.0 C 6022.0,9075.0 6047.0,9090.0 6070.0,9090.0 L 6101.0,9090.0 L 6096.0,9181.0 C 6093.0,9231.0 6087.0,9277.0 6082.0,9283.0 C 6077.0,9290.0 6063.0,9322.0 6050.0,9355.0 C 6017.0,9443.0 5981.0,9511.0 5949.0,9548.0 C 5925.0,9575.0 5920.0,9590.0 5920.0,9635.0 C 5920.0,9685.0 5918.0,9690.0 5888.0,9708.0 C 5870.0,9719.0 5837.0,9731.0 5815.0,9735.0 C 5755.0,9745.0 5715.0,9781.0 5701.0,9835.0 C 5692.0,9873.0 5686.0,9880.0 5666.0,9880.0 C 5653.0,9880.0 5640.0,9873.0 5636.0,9865.0 C 5632.0,9854.0 5616.0,9850.0 5580.0,9850.0 C 5530.0,9850.0 5504.0,9860.0 5465.0,9891.0 C 5454.0,9901.0 5419.0,9914.0 5386.0,9921.0 C 5350.0,9929.0 5301.0,9951.0 5257.0,9979.0 C 5218.0,10004.0 5152.0,10039.0 5110.0,10055.0 C 5051.0,10079.0 5034.0,10090.0 5032.0,10108.0 C 5027.0,10141.0 4956.0,10140.0 4920.0,10105.0 C 4894.0,10081.0 4891.0,10080.0 4864.0,10094.0 C 4848.0,10102.0 4823.0,10112.0 4808.0,10115.0 C 4791.0,10118.0 4775.0,10132.0 4765.0,10149.0 C 4757.0,10165.0 4741.0,10181.0 4730.0,10185.0 C 4719.0,10189.0 4710.0,10200.0 4710.0,10212.0 C 4710.0,10228.0 4706.0,10231.0 4688.0,10225.0 C 4633.0,10208.0 4619.0,10208.0 4602.0,10224.0 C 4588.0,10236.0 4581.0,10237.0 4572.0,10228.0" fill="pink"/>
</svg>

<?xml version="1.0" standalone="no"?>
<!DOCTYPE svg PUBLIC "-//W3C//DTD SVG 20010904//EN"
 "http://www.w3.org/TR/2001/REC-SVG-20010904/DTD/svg10.dtd">
<svg version="1.0" xmlns="http://www.w3.org/2000/svg"
 width="1024.000000pt" height="1024.000000pt" viewBox="0 0 1024.000000 1024.000000"
 preserveAspectRatio="xMidYMid meet">
<metadata>
Created by potrace 1.10, written by Peter Selinger 2001-2011
</metadata>
<g transform="translate(0.000000,1024.000000) scale(0.100000,-0.100000)"
fill="#000000" stroke="none">
<path d="M4572 10228 c-8 -8 -8 -17 -1 -30 15 -27 5 -34 -52 -41 -107 -13
-149 -57 -182 -192 -7 -33 -25 -95 -38 -138 l-23 -78 27 -52 c31 -59 35 -105
11 -114 -9 -3 -29 -33 -45 -67 -35 -74 -39 -150 -11 -187 24 -31 34 -97 26
-170 -6 -56 -8 -59 -55 -87 -50 -32 -89 -91 -89 -135 0 -24 54 -82 99 -107 41
-22 23 -122 -39 -210 -10 -14 -25 -54 -34 -90 -12 -48 -24 -70 -44 -85 -15
-10 -49 -41 -75 -67 -45 -45 -77 -61 -77 -38 0 6 -11 10 -25 10 -24 0 -25 -2
-25 -69 0 -51 -5 -74 -18 -92 -10 -13 -34 -53 -52 -88 -19 -35 -44 -70 -57
-78 -28 -18 -118 -149 -142 -206 -10 -23 -24 -70 -31 -104 -7 -35 -17 -63 -21
-63 -5 0 -9 6 -9 13 0 8 -4 7 -10 -3 -5 -8 -10 -41 -10 -72 0 -31 -5 -60 -10
-63 -6 -4 -19 -24 -30 -45 -15 -30 -27 -40 -57 -47 -35 -8 -38 -12 -41 -48 -2
-22 -9 -47 -17 -55 -58 -67 -95 -260 -95 -497 0 -99 -1 -102 -33 -145 -18 -24
-39 -63 -46 -88 -7 -25 -24 -66 -37 -92 -19 -38 -24 -63 -24 -125 0 -57 -5
-88 -19 -113 -10 -19 -23 -58 -29 -85 -17 -79 -46 -138 -86 -173 -20 -18 -41
-32 -46 -32 -6 0 -10 -7 -10 -16 0 -8 -16 -30 -35 -48 -22 -21 -35 -43 -35
-59 0 -14 -5 -29 -11 -33 -6 -3 -17 -22 -25 -40 -9 -22 -28 -41 -53 -53 -32
-17 -40 -27 -45 -58 -18 -100 -35 -130 -94 -170 -49 -33 -63 -50 -102 -126
-54 -104 -91 -144 -169 -182 -66 -31 -65 -27 -78 -208 l-6 -88 44 -45 c24 -24
49 -44 57 -44 11 0 13 -9 8 -37 -9 -50 -9 -47 4 -213 17 -215 9 -359 -24 -441
-14 -36 -26 -82 -26 -103 0 -21 -13 -62 -30 -96 -23 -46 -30 -73 -30 -119 0
-98 -51 -212 -130 -286 -17 -16 -86 -68 -152 -115 -88 -62 -124 -93 -129 -112
-7 -28 3 -38 41 -38 10 0 31 -11 47 -23 15 -13 80 -47 143 -76 63 -28 138 -67
165 -85 28 -18 66 -36 85 -39 37 -8 102 -47 273 -167 101 -70 115 -84 208
-208 73 -98 102 -144 105 -170 13 -95 27 -171 41 -217 18 -55 71 -155 82 -155
5 0 20 -11 35 -25 21 -20 26 -33 26 -75 0 -50 12 -64 36 -40 8 8 40 -17 105
-78 83 -79 102 -92 155 -107 60 -16 61 -18 92 -78 17 -34 34 -82 37 -106 9
-57 52 -124 103 -161 50 -36 120 -122 192 -235 56 -89 79 -152 80 -217 0 -35
4 -39 48 -61 26 -14 72 -32 102 -42 96 -32 154 -62 196 -102 23 -22 82 -61
133 -87 50 -26 106 -63 124 -83 18 -19 52 -46 77 -58 25 -13 56 -39 69 -59 18
-28 35 -39 79 -51 72 -21 120 -62 146 -123 29 -68 110 -154 176 -187 30 -15
80 -42 110 -60 92 -55 155 -69 315 -66 77 2 144 7 150 12 5 5 24 9 43 9 20 0
74 19 131 46 53 26 115 49 139 52 38 4 51 -1 119 -43 90 -55 143 -63 209 -28
36 18 42 19 79 6 54 -20 134 -12 173 15 28 21 35 22 79 11 26 -7 65 -20 87
-30 41 -18 77 -14 122 16 27 18 71 19 110 4 18 -6 66 -8 129 -3 l101 6 18 44
c51 125 127 202 240 245 l55 21 89 167 c50 91 100 186 112 211 28 56 115 157
143 166 11 3 50 26 87 50 64 41 68 46 72 87 4 34 21 68 68 137 35 50 74 99 87
107 13 8 44 47 70 87 47 70 48 72 47 151 -1 111 -23 175 -92 265 -89 114 -141
196 -158 243 -8 23 -27 53 -43 67 -37 33 -54 113 -58 288 l-4 133 52 72 c28
40 70 91 92 114 l40 41 -7 99 c-4 57 -3 117 3 142 8 38 7 50 -12 84 -12 22
-28 51 -36 65 -8 14 -16 45 -19 70 -4 34 0 50 17 73 20 26 22 39 17 97 -3 37
-9 128 -15 202 -5 74 -12 151 -16 170 -13 62 -71 174 -103 202 -48 40 -70 92
-92 223 -23 140 -26 232 -7 278 8 18 39 54 70 80 l57 49 0 149 c0 146 -1 151
-30 209 -16 33 -30 67 -30 77 0 43 -54 213 -70 218 -9 3 -32 21 -50 40 -35 36
-35 36 -41 153 -5 104 -9 124 -37 182 -18 36 -32 70 -32 77 0 7 -10 18 -22 24
-13 7 -68 56 -123 109 -99 97 -101 98 -200 130 -107 35 -214 98 -238 140 -8
14 -18 41 -22 60 -12 55 -33 78 -99 107 -56 25 -103 63 -261 212 -22 21 -53
63 -68 94 -26 51 -27 60 -16 91 9 26 10 47 1 92 -7 31 -12 83 -12 115 0 54 -2
60 -35 86 -33 27 -34 31 -25 63 6 19 10 63 10 98 0 55 -5 73 -40 136 -49 90
-69 108 -148 136 -65 24 -92 53 -92 100 0 11 -25 54 -55 95 -67 90 -70 99 -80
199 -4 44 -13 97 -21 119 -8 22 -14 55 -14 74 0 20 -15 65 -35 105 -29 57 -34
77 -29 102 11 43 9 50 -38 147 -39 83 -43 88 -103 120 -58 31 -64 37 -79 85
-9 28 -16 55 -16 60 0 10 108 2 146 -11 18 -6 24 1 42 44 12 27 22 54 22 60 0
7 -24 11 -60 11 -33 0 -60 4 -60 10 0 6 50 10 130 10 l130 0 0 30 c0 46 -42
84 -83 76 -117 -24 -131 -24 -166 -3 -41 25 -70 70 -63 100 3 12 38 50 78 85
56 47 81 62 104 62 l31 0 -5 91 c-3 50 -9 96 -14 102 -5 7 -19 39 -32 72 -33
88 -69 156 -101 193 -24 27 -29 42 -29 87 0 50 -2 55 -32 73 -18 11 -51 23
-73 27 -60 10 -100 46 -114 100 -9 38 -15 45 -35 45 -13 0 -26 -7 -30 -15 -4
-11 -20 -15 -56 -15 -50 0 -76 10 -115 41 -11 10 -46 23 -79 30 -36 8 -85 30
-129 58 -39 25 -105 60 -147 76 -59 24 -76 35 -78 53 -5 33 -76 32 -112 -3
-26 -24 -29 -25 -56 -11 -16 8 -41 18 -56 21 -17 3 -33 17 -43 34 -8 16 -24
32 -35 36 -11 4 -20 15 -20 27 0 16 -4 19 -22 13 -55 -17 -69 -17 -86 -1 -14
12 -21 13 -30 4z"/>
</g>
</svg>
